X: 37960
T: Spanish Point
R: waltz
M: 3/4
K: Dmajor
de|f4 af|e4 dc|B4 AG|F4 DE|F4 FG|A4dA|B4 fd|e4 de|
f4 af|e4 dc|B4 AG|F4 DE|F4 Ag|f4 ad|e4 dc|d4:|
fd|e4 Ag|f4 dG|B4 AE|F4 FG|A4 fA|B4 dg|f4 ad|e4 de|
f4 ad|e4 dc|B4 AG|F4 DE|F4 Ag|f4 ad|e4 dc|d4:|

